X:12
T:Envoie tes messagers, Seigneur - T1
C:C. Rozier
M:3/4
L:1/4
K:F
C|DFA/G/|[M:2/4]A3/F/|FD/F/|GA|G2-|G C|[M:3/4]DFA/G/|A-A/ z/F/G/|[M:2/4]AG/A/ |
(cB)|A/z/ G/F/|G2|A-A/||F/|F/F/F/F/|F3/F/|F/G/F/D/|F3/D/|F/G/A/B/|A3/F/|A/A/G/F/|G2 ||
